!!!COM: Haydn, Franz Joseph
!!!CDT: 1732/03/31/-1809/05/31/
!!!CNT: Austrian
!!!OTL: Sonata No. 61 in D major
!!!SCT: Hob. XVI:51
!!!OMV: Mvmt. 1
!!!OMD: Andante
!!!ODT: 1794-1795///
!!!SMS: Universal Edition 1, Haydn Piano Sonatas, Vol. 1, No. 10
!!!ONB: Stich und Druck von Jos. Eberle & Co. Wien VII. Seidengasse 3-9
**kern	**kern	**dynam
*staff2	*staff1	*staff1/2
*Ipiano	*Ipiano	*Ipiano
*clefF4	*clefG2	*clefG2
*k[f#c#]	*k[f#c#]	*k[f#c#]
*D:	*D:	*D:
*met(C)	*met(C)	*met(C)
*M4/4	*M4/4	*M4/4
*MM120	*MM120	*MM120
=1-	=1-	=1-
4r	2d/)	f
4DD/ 4D/	.	.
4r	2e/)	.
4AAA/ 4AA/	.	.
=2	=2	=2
4r	2f#/)	.
12D/L	.	.
12AA/	.	.
12FF#/J	.	.
&(4DD/&)	4r	.
4r	(8.dd\L	p
.	16a\Jk	.
=3	=3	=3
*^	*	*
4r	4r	(2f#/)	.
2.d/	4d\	.	.
.	4B\	8.g/L	.
.	.	16f#/k	.
.	4G\	8.g/	.
.	.	16b/Jk	.
=4	=4	=4	=4
(4c#/	2.A\	8.e/L	.
.	.	16g/k	.
4d/	.	8.f#/	.
.	.	16a/Jk	.
4e/)	.	4g/)	.
4r	4r	4r	.
*v	*v	*	*
=5	=5	=5
8r	2d/)	f
(16C#/LL	.	.
16D/JJ	.	.
4DD/)	.	.
8r	2e/)	.
(16GG#/LL	.	.
16AA/JJ	.	.
4AAA/)	.	.
=6	=6	=6
8.r	2f#/)	.
16C#/	.	.
8D/L	.	.
16AA/L	.	.
16FF#/JJ	.	.
&(4DD/&)	4r	.
4r	(8.ff#\L	p
.	16dd\Jk	.
=7	=7	=7
*^	*	*
4r	4r	(2a/)	.
*v	*v	*	*
*clefG2	*	*
*^	*	*
4f#/	2.d\	.	.
&(4g/&)	.	8.b\L	.
.	.	16a\k	.
4g/	.	8.b\	.
.	.	16dd\Jk	.
=8	=8	=8	=8
2f#/	2d\	8.a\L	.
.	.	16dd\k	.
.	.	8.ff#\	.
.	.	16dd\Jk	.
2r	2r	4aa''\)	.
.	.	4r	.
*v	*v	*	*
*clefF4	*	*
=9	=9	=9
2G\ 2B\ 2d\	(8.b\L	<
.	16dd\k	.
.	8.gg\	.
.	16dd\Jk	.
2r	4bb''\)	.
.	8.r	.
.	(16bb\	.
=10	=10	=10
2.AA/ 2.D/ 2.F#/	12aa\L	f
.	12ff#\	.
.	12dd\J	.
.	12a/L	.
.	12f#/	.
.	12d/J	.
.	12A/L	.
.	12A#/	.
.	12B/J	.
4AA\ 4E\ 4G\	12B#/L	.
.	12c#/	.
.	12e/J	.
=11	=11	=11
12D\L	&((2dd\&))	mf
12F#\	.	.
12A\J	.	.
12D\L	.	.
12F#\	.	.
12A\J	.	.
12E\L	4c#/ 4cc#/	.
12G\	.	.
12A\J	.	.
12D\L	4d/ 4dd/	.
12F#\	.	.
12A\J	.	.
=12	=12	=12
12C#\L	4..e/ 4..ee/	.
12E\	.	.
12A\J	.	.
12BB\L	.	.
12D\	.	.
12A\J	.	.
.	16f#\ 16ff#\	.
12AA\L	2g\ 2gg\)	.
12C#\	.	.
12A\J	.	.
12C#\L	.	.
12E\	.	.
12A\J	.	.
=13	=13	=13
12D\L	4f#'\ (4ff#'\	.
12F#\	.	.
12A\J	.	.
12D\L	4f#'\ 4ff#'\	.
12F#\	.	.
12A\J	.	.
12GG\L	4b'\ 4bb'\	.
12BB\	.	.
12G\J	.	.
12GG\L	4b'\ 4bb'\)	.
12BB\	.	.
12G\J	.	.
=14	=14	=14
*	*^	*
(12AA\L	(2dd/	2f#\	<
12D\	.	.	.
12F#\J	.	.	.
12A\L	.	.	.
12B\	.	.	.
12G#\J	.	.	.
4A\)	(12cc#/L)	4e\	>
.	12b/	.	.
.	12a/J	.	.
4r	12g/L	4r	.
.	12f#/	.	.
.	12e/J)	.	.
*	*v	*v	*
=15	=15	=15
12D\L	2d/ (2dd/	.
12F#\	.	.
12A\J	.	.
12D\L	.	.
12F#\	.	.
12A\J	.	.
12E\L	4c#/ 4cc#/	.
12G\	.	.
12A\J	.	.
12D\L	4d/ 4dd/	.
12F#\	.	.
12A\J	.	.
=16	=16	=16
12C#\L	4..e/ 4..ee/	.
12E\	.	.
12A\J	.	.
12BB\L	.	.
12D\	.	.
12A\J	.	.
.	16f#\ 16ff#\	.
12AA\L	2g\ 2gg\)	.
12C#\	.	.
12A\J	.	.
12C#\L	.	.
12E\	.	.
12A\J	.	.
=17	=17	=17
12D\L	2f#\ (2ff#\	.
12F#\	.	.
12A\J	.	.
12D\L	.	.
12F#\	.	.
12A\J	.	.
12C#\L	4e/ 4ee/	<
12G\	.	.
12A\J	.	.
12Cn\L	4f#\ 4ff#\	.
12D\	.	.
12A\J	.	.
=18	=18	=18
12BB\L	4..g\ 4..gg\	.
12D\	.	.
12G\J	.	.
12AA\L	.	.
12Cn\	.	.
12F#\J	.	.
.	16a\ 16aa\	.
12GG\L	4..b\ 4..bb\)	.
12BB\	.	.
12G\J	.	.
12GG\L	.	.
12BB\	.	.
12G\J	.	.
.	16b\ (16bb\	.
=19	=19	=19
2.AA/ 2.D/ 2.F#/	12aa\L	f
.	12ff#\	.
.	12ddd\J	.
.	12aa\L	.
.	12ff#\	.
.	12dd\J	.
.	12a/L	.
.	12f#/	.
.	12a/J	.
4AA\ 4C#\ 4G\	12g/L	.
.	12e/	.
.	12c#/J)	.
=20	=20	=20
12D\L	2d/ 2dd/	mf
12F#\	.	.
12A\J	.	.
12D\L	.	.
12F#\	.	.
12A\J	.	.
12D\L	2f#\ 2ff#\	.
12F#\	.	.
12A\J	.	.
12D\L	.	.
12F#\	.	.
12A\J	.	.
=21	=21	=21
12C#\L	[2a\ [2aa\	.
12G\	.	.
12A\J	.	.
12C#\L	.	.
12G\	.	.
12A\J	.	.
12C#\L	12a\] 12aa\L]	.
12G\	12b\ 12bb\	.
12A\J	12a\ 12aa\J	.
12C#\L	12g\ 12gg\L	.
12G\	12f#\ 12ff#\	.
12A\J	12e\ 12ee\J	.
=22	=22	=22
12D\L	2d/ 2dd/	.
12F#\	.	.
12A\J	.	.
12D\L	.	.
12F#\	.	.
12A\J	.	.
12D\L	2f#\ 2ff#\	.
12F#\	.	.
12A\J	.	.
12D\L	.	.
12F#\	.	.
12A\J	.	.
=23	=23	=23
12C#\L	[2a#\ [2aa#\	f
12E\	.	.
12G\J	.	.
12C#\L	.	.
12E\	.	.
12G\J	.	.
12C#\L	12a#\] 12aa#\L]	.
12E\	12ee\ 12eee\	.
12G\J	12dd\ 12ddd\J	.
12C#\L	12cc#\ 12ccc#\L	.
12E\	12b\ 12bb\	.
12G\J	12a#\ 12aa#\J	.
=24	=24	=24
12D\L	4b\ (4bb\	.
12F#\	.	.
12B\J	.	.
12C#\L	4cc#\ 4ccc#\	.
12E\	.	.
12A#\J	.	.
12BB\L	8ee\ 8eee\L	.
12D\	.	.
.	8dd\ 8ddd\J	.
12B\J	.	.
12D\L	8cc#\ 8ccc#\L	.
12F#\	.	.
.	8b\ 8bb\J)	.
12B\J	.	.
=25	=25	=25
*	*^	*
12E\L	2r	2cc#\ (2aa\	<
12An\	.	.	.
12c#\J	.	.	.
12e\L	.	.	.
12f#\	.	.	.
12d#\J	.	.	.
&(4e\&)	(12gg#/L)	4b\	>
.	12ff#/	.	.
.	12ee/J	.	.
4r	12dd/L	4r	.
.	12cc#/	.	.
.	12b/J	.	.
*	*v	*v	*
=26	=26	=26
12A\L	4a''/)	p
12c#\	.	.
12e\J	.	.
12A\L	4a''/	.
12c#\	.	.
12e\J	.	.
12G#\L	4b''\	.
12d\	.	.
12e\J	.	.
12G#\L	4r	.
12d\	.	.
12e\J	.	.
=27	=27	=27
12A\L	4cc#''\	.
12c#\	.	.
12e\J	.	.
12A\L	4cc#''\	.
12c#\	.	.
12e\J	.	.
12B\L	4dd''\	.
12d\	.	.
12e\J	.	.
12B\L	4r	.
12d\	.	.
12e\J	.	.
=28	=28	=28
4A''\ 4c#''\	12r	.
.	(12ccc#\L	mf
.	12bb\J	.
4r	12aa\L	.
.	12gg#\	.
.	12ff#\J	.
4r	12ee\L	.
.	12ff#\	.
.	12ee\J	.
4G#''\ 4B''\ 4e''\	12dd\L	.
.	12cc#\	.
.	12b\J	.
=29	=29	=29
4A''\ 4c#''\ 4e''\	12a''\L)	.
.	(12ccc#\	.
.	12bb\J	.
4r	12aa''\L)	.
.	(12gg#\	f
.	12ff#\J	.
4r	12ee''\L)	f
.	(12ff#\	.
.	12ee\J	.
4G#''\ 4B''\ 4e''\	12dd''\L)	.
.	(12cc#\	f
.	12b\J	.
=30	=30	=30
4A''\ 4c#''\ 4e''\	12a''\L)	.
.	(12aa\	f
.	12gg#\J	.
*clefG2	*	*
4a/ 4cc#/	12ff#\L	.
.	12ccc#\)	.
.	(12dd#\J	.
&(4g#/&) 4b/	12ee\L	.
.	12ff#\	.
.	12ee\J	.
4f#/ 4a/	12ddn\L	.
.	12aa\)	.
.	(12b#\J	.
=31	=31	=31
&(4e/&) 4g#/	12cc#\L	.
.	12dd\	.
.	12cc#\J	.
(4d/ 4f#/	12bn\L	.
.	12ff#\)	.
.	(12g#\J	.
4c#/) 4e/	12a\L	.
.	12cc#\	.
.	12b\J	.
4r	12a\L	.
.	12ee\)	.
.	12a#\J	.
*clefF4	*	*
=32	=32	=32
12D\L	(2b\	.
12F#\	.	.
12B\J	.	.
12D\L	.	.
12F#\	.	.
12B\J	.	.
12D#\L	2ff#\	.
12A\	.	.
12cn\J	.	.
12D#\L	.	.
12A\	.	.
12c\J	.	.
=33	=33	=33
12E\L	2a/	.
12A\	.	.
12c#\J	.	.
12E\L	.	.
12A\	.	.
12c#\J	.	.
12E\L	8.b\L	.
12G#\	.	.
12d\J	.	.
.	16a\k	.
12E\L	8.b\	.
12G#\	.	.
12d\J	.	.
.	16cc#\Jk	.
=34	=34	=34
4A\ 4c#\	12a\L)	.
.	12ff#''\ 12aa''\	mf
.	12ee''\ 12gg#''\J	.
12r	12dd''\ 12ff#''\L	.
12r	12cc#''\ 12ee''\	.
12GG#''/ 12G#''/	12b''\ 12dd''\J	.
4AA\ 4A\	12a''\ 12cc#''\L	.
.	12ff#''\ 12aa''\	.
.	12ee''\ 12gg#''\J	.
12r	12dd''\ 12ff#''\L	.
12r	12cc#''\ 12ee''\	.
12GG#''/ 12G#''/	12b''\ 12dd''\J	.
=35	=35	=35
4AA\ 4A\	12a''\ 12cc#''\L	.
.	(12ccc#\	.
.	12bb\J	.
12r	12aa''\L)	.
12f#\L	(12aa\	.
12e\J	12gg#\J	.
&(12d''\L&)	12ff#''\L)	.
12d\	(12ff#\	.
12c#\J	12ee\J	.
&(12B''\L&)	12dd''\L)	.
12B\	(12dd\	.
12A\J	12cc#\J	.
=36	=36	=36
&(12G#\L&)	(4b\)	.
12B\	.	.
12e\J	.	.
12G#\L	4dd\	.
12B\	.	.
12e\J	.	.
12A\L	4cc#\	.
12c#\	.	.
12e\J	.	.
12A\L	4a/)	.
12c#\	.	.
12e\J	.	.
=37	=37	=37
12D\L	(4.ff#\	.
12A\	.	.
12d\J	.	.
12D\L	.	.
12A\	.	.
.	8ff#\	.
12d\J	.	.
12D#\L	2aa\	.
12A\	.	.
12cn\J	.	.
12D#\L	.	.
12A\	.	.
12c\J	.	.
=38	=38	=38
12E\L	2a/	>
12A\	.	.
12c#\J	.	.
12E\L	.	.
12A\	.	.
12c#\J	.	.
12E\L	8.b/L	.
12G#\	.	.
12d\J	.	.
.	16a/k	.
12E\L	8.b/	.
12G#\	.	.
12d\J	.	.
.	16cc#/Jk	.
=39	=39	=39
12A\L	4a/)	p
12c#\	.	.
12e\J	.	.
12A\L	4r	.
12c#\	.	.
12e\J	.	.
12E\L	4g#'\ (4ee'\	.
12B\	.	.
12d\J	.	.
12E\L	4g#'\ 4ee'\	.
12B\	.	.
12d\J	.	.
=40	=40	=40
12A\L	4a'\ 4cc#'\)	.
12c#\	.	.
12e\J	.	.
12A\L	4r	.
12c#\	.	.
12e\J	.	.
12E\L	4g#'\ (4ee'\	.
12B\	.	.
12d\J	.	.
12E\L	4g#'\ 4ee'\	.
12B\	.	.
12d\J	.	.
=41	=41	=41
12A\L	4a/)	.
12c#\	.	.
12e\J	.	.
12A\L	4r	.
12c#\	.	.
12e\J	.	.
*	*clefF4	*clefF4
12A\L	(4AA'/	.
12c#\	.	.
12e\J	.	.
12A\L	4AA'/	.
12c#\	.	.
12e'\J	.	.
=42	=42	=42
4A\	12AA'/L)	.
.	12E/	.
.	12D/J	.
4r	12C#\L	<
.	12Gn\	.
.	12F#\J	.
2r	12E\L	.
.	12B\	.
.	12A\J	.
.	12G\L	.
.	12e\	.
.	12d\J	.
=43	=43	=43
1r	12c#\L	.
.	12g\	.
.	12f#\J	.
.	12e\L	.
.	12d\	.
.	12c#\J	.
.	12cn\L	.
.	12B\	.
.	12B-\J	.
.	12A\L	.
.	12G#\	.
.	12Gn\J	.
=44	=44	=44
8r	2d\)	f
(16C#/LL	.	.
16D/JJ	.	.
4DD/)	.	.
8r	2e\)	.
(16GG#/LL	.	.
16AA/JJ	.	.
4AAA/)	.	.
=45	=45	=45
8.r	2f#\)	.
(16C#/	.	.
8D/L	.	.
16AA/L	.	.
16FF#/JJ	.	.
4DD/)	4r	.
*	*clefG2	*clefG2
4r	(8.dd\L	p
.	16a\Jk)	.
=46	=46	=46
*^	*	*
4r	4r	(2f#/	.
2.d/	4d\	.	.
.	&(4B\&)	&(8.g/L&)	.
.	.	16f#/k	.
.	4G\	8.g/	.
.	.	16b/Jk	.
=47	=47	=47	=47
(4c#/	2.A\	8.e/L	.
.	.	16g/k	.
4d/	.	8.f#/	.
.	.	16a/Jk	.
4e/)	.	4g/)	.
4r	4r	4r	.
*v	*v	*	*
=48	=48	=48
16r	4d/)	f
(16D/LL	.	.
16AA/	.	.
16FF#/JJ	.	.
8DD/)	8r	.
8r	8d/)	.
16r	8e/)	.
(16AA/LL	.	.
16EE/	8r	.
16CC#/JJ	.	.
8AAA/)	8r	.
8r	8e/)	.
=49	=49	=49
16r	4f#/)	.
16DD/LL	.	.
16EE/	.	.
16FF#/JJ	.	.
16GG/LL	4r	.
16AA/	.	.
16BB/	.	.
16C#/JJ	.	.
&(4D/&)	16r	.
.	(16aa\LL	p
.	16gg\	.
.	16ff#\JJ	.
4r	16ee\LL	.
.	16dd\	.
.	16cc#\	.
.	16b\JJ	.
*clefG2	*	*
=50	=50	=50
8f#/L	4.a/)	.
8d/	.	.
8f#/	.	.
8d/J	8a#/	.
8g/L	(16b\LL	.
.	16cc#\	.
8d/	16dd\	.
.	16cc#\JJ	.
8g/	16ee/	.
.	&(16dd\LL&)	.
8d/J	16cc#\	.
.	16b\JJ	.
=51	=51	=51
&(4f#/&)	8a\L	.
.	16b\L	.
.	16cc#\JJ	.
4r	16dd\LL	.
.	16ee\	.
.	16ff#\	.
.	16gg\JJ	.
8r	4aa\)	mf
(16f#/LL	.	.
16e/JJ	.	.
16d/LL	4r	.
16c#/	.	.
16B/	.	.
16A/JJ	.	.
=52	=52	=52
4G/)	8b\L	<
.	16cc#\L	.
.	16dd\JJ	.
4r	16ee\LL	.
.	16ff#\	.
.	16gg\	.
.	16aa\JJ	.
4r	&(8bb\L&)	.
.	8bb\	.
4G#/ 4B/ 4d/ 4fn/	8ccc#\	.
.	&(8ddd\J&)	.
=53	=53	=53
12A/L	2dd\	f
12d/	.	.
12f#/J	.	.
12A/L	.	.
12d/	.	.
12f#/J	.	.
12A/L	(8.ee\L	>
12c#/	.	.
12gn/J	.	.
.	16dd\k	.
12A/L	8.ee\	.
12c#/	.	.
12g/J	.	.
.	16ff#\Jk	.
=54	=54	=54
12d/L	4dd\)	p
12fn/	.	.
12a/J	.	.
12d/L	4r	.
12f/	.	.
12a/J	.	.
12c#/L	4ee''\	.
12e/	.	.
12a/J	.	.
12c#/L	4ee''\	.
12e/	.	.
12a/J	.	.
=55	=55	=55
12d/L	4ffn''\	.
12fn/	.	.
12a/J	.	.
12d/L	4r	.
12f/	.	.
12a/J	.	.
12e/L	4cc#''\	.
12g/	.	.
12a/J	.	.
12e/L	4cc#''\	.
12g/	.	.
12a/J	.	.
=56	=56	=56
12fn/L	4dd''\	.
12a/	.	.
12g/J	.	.
12f/L	4dd''\	.
12e/	.	.
12d/J	.	.
12c#/L	4ee''\	.
12e/	.	.
12d/J	.	.
12c#/L	4ee''\	.
12B/	.	.
12A/J	.	.
*clefF4	*	*
=57	=57	=57
12d\L	4ffn''\	.
12fn\	.	.
12e\J	.	.
12d\L	4ff''\	<
12cn\	.	.
12B-\J	.	.
12A\L	4b-''\ 4bb-''\	.
12G\	.	.
12F#\J	.	.
12G\L	4b-''\ 4bb-''\	.
12A\	.	.
12B-\J	.	.
=58	=58	=58
12cn\L	4e''/ 4ee''/	.
12d\	.	.
12c\J	.	.
12B-\L	4e/ 4ee/	.
12A\	.	.
12G\J	.	.
12Fn\L	4a''\ 4aa''\	.
12G\	.	.
12A\J	.	.
12G\L	4a''\ 4aa''\	.
12F\	.	.
12E\J	.	.
=59	=59	=59
12D\L	4ffn''\ 4ddd''\	.
12E\	.	.
12Fn\J	.	.
12E\L	4ff''\ 4ddd''\	.
12D\	.	.
12Cn\J	.	.
12BB-\L	4dd''\ 4ddd''\	.
12D\	.	.
12F#\J	.	.
12G\L	4dd''\ 4ddd''\	.
12A\	.	.
12B-\J	.	.
*clefG2	*	*
=60	=60	=60
12cn/L	(12ee\L	f
12e/	12gg\	.
12d/J	12ffn\J	.
12c/L	12ee\L	.
12g/	12bb-\	.
12fn/J	12aa\J	.
&(12e/L&)	12gg\L)	.
12b-/	(12ddd\	.
12a/J	12cccn\J	.
12g/L	12bb-\L	.
12ccn/	12aa\	.
12b-/J	12gg\J	.
=61	=61	=61
12a/L	12ffn\L	.
12ccn/	12aa\	.
12b-/J	12gg\J	.
12a/L	12ff\L	.
12g/	12ee\	.
12fn/J	12dd\J	.
12e/L	12ccn\L	.
12f/	12dd\	.
12e/J	12cc\J	.
12d/L	12b-/L	.
12cn/	12a/	.
12B-/J	12g/J	.
=62	=62	=62
&(4A/&)	12fn''\L)	.
.	(12aa\	.
.	12gg\J	.
4r	12ffn\L	.
.	12ee\	.
.	12dd\J	.
4r	12ccn\L	.
.	12dd\	.
.	12cc\J	.
*clefF4	*	*
4E''\ 4G''\ 4cn''\	12b-/L	.
.	12a/	.
.	12g/J	.
=63	=63	=63
4Fn''\ 4A''\ 4cn''\	12fn''\L)	.
.	(12aa\	.
.	12gg\J	.
4r	12ffn\L	.
.	12ee\	.
.	12dd\J	.
4r	12ccn\L	.
.	12dd\	.
.	12cc\J	.
4E''\ 4G''\ 4c''\	12b-/L	.
.	12a/	.
.	12g/J	.
=64	=64	=64
4Fn''\ 4A''\ 4cn''\	12fn\L)	.
.	12a\	.
.	12ffn\J	.
4r	12f\L	.
.	12a\	.
.	12ee\J	.
2r	12f/L	.
.	12a/	.
.	12dd/J	.
.	12f/L	.
.	12a/	.
.	12cc#/J	.
=65	=65	=65
(2.BBB-/ 2.BB-/	12fn/L	.
.	12b-/	.
.	12dd/J	.
.	12f/L	.
.	12a/	.
.	12dd/J	.
.	12f/L	.
.	12a-/	.
.	12dd/J	.
4BBBn/) 4BBn/	12f/L	.
.	12g/	.
.	12dd/J	.
=66	=66	=66
4CCn''/ 4Cn''/	12fn/L	.
.	12an/	.
.	12ccn/J	.
4DD-''/ 4D-''/	12f/L	.
.	12a-/	.
.	12bn/J	.
2CC/ 2C/	12f/L	.
.	12an/	.
.	12cc/J	.
.	12b-/L	.
.	12g/	.
.	12e/J	.
=67	=67	=67
12Fn\L	2fn\ 2ffn\	mf
12A\	.	.
12cn\J	.	.
12F\L	.	.
12A\	.	.
12c\J	.	.
12F\L	2a\ 2aa\	.
12A\	.	.
12c\J	.	.
12F\L	.	.
12A\	.	.
12c\J	.	.
=68	=68	=68
12E\L	[2ccn\ [2cccn\	.
12B-\	.	.
12cn\J	.	.
12E\L	.	.
12B-\	.	.
12c\J	.	.
12E\L	12cc\] 12ccc\L]	.
12B-\	12dd\ 12ddd\	.
12c\J	12cc\ 12ccc\J	.
12E\L	12b-\ 12bb-\L	.
12B-\	12a\ 12aa\	.
12c\J	12g\ 12gg\J	.
=69	=69	=69
12Fn\L	2fn\ 2ffn\	.
12A\	.	.
12cn\J	.	.
12F\L	.	.
12A\	.	.
12c\J	.	.
12F\L	4a\ 4aa\	.
12A\	.	.
12c\J	.	.
12F\L	4ccn\ 4cccn\	.
12A\	.	.
12c\J	.	.
=70	=70	=70
12F#\L	[4ee-\ [4eee-\	.
12A\	.	.
12cn\J	.	.
12F#\L	12ee-\] 12eee-\L]	.
12A\	(12cccn\	.
12c\J	12bb-\J	.
12F#\L	12aa\L	.
12A\	12gg\	.
12d\J	12ff#\J	.
12F#\L	12ee-\L	.
12A\	12dd\	.
12d\J	12ccn\J)	.
=71	=71	=71
.	(b-q/	.
12G\L	2gg\)	.
12B-\	.	.
12d\J	.	.
12G\L	.	.
12B-\	.	.
12d\J	.	.
12G\L	4b-\ 4bb-\	.
12B-\	.	.
12d\J	.	.
12G\L	4dd\ 4ddd\	.
12B-\	.	.
12d\J	.	.
=72	=72	=72
12G#\L	[4ffn\ [4fffn\	.
12Bn\	.	.
12d\J	.	.
12G#\L	12ff\] 12fff\L]	.
12B\	(12ccc#\	.
12d\J	12ddd\J	.
12G#\L	12fff\L	.
12B\	12ccc#\	.
12d\J	12ddd\J	.
12G#\L	12fff\L	.
12d\	12eee\	.
12fn\J	12ddd\J	.
=73	=73	=73
12A\L	4ccc#\)	.
12c#\	.	.
12e\J	.	.
12A\L	4a\ (4aa\	f
12c#\	.	.
12e\J	.	.
12A\L	4b-\ 4bb-\)	.
12d\	.	.
12fn\J	.	.
12A\L	4g#\ (4gg#\	.
12d\	.	.
12f\J	.	.
=74	=74	=74
12A\L	4a\ 4aa\)	.
12c#\	.	.
12e\J	.	.
12A\L	4ee\	.
12c#\	.	.
12e\J	.	.
12A\L	4ffn\	.
12d\	.	.
12fn\J	.	.
12A\L	4g#/	.
12d\	.	.
12f\J	.	.
=75	=75	=75
12A\L	4a/	.
12c#\	.	.
12e\J	.	.
12A\L	(12cc#\L	.
12c#\	12ee\	.
12e\J	12aa\J	.
12A\L	12dd\L	.
12d\	12ffn\	.
12fn\J	12bbn\J	.
12A\L	12b\L	.
12Bn\	12dd\	.
12d\J	12gg#\J	.
=76	=76	=76
12A\L	12a\L	.
12c#\	12ee\	.
12e\J	12aa\J)	.
12A\L	(12a\L	.
12d#\	12dd#\	.
12f#\J	12ff#\J	.
12A\L	12a\L	.
12e\	12ee\	.
12g\J	12ggn\J	.
12A\L	12a\L	.
12d#\	12ff#\	.
12f#\J	12aa\J	.
=77	=77	=77
12A\L	12a\L	.
12e\	12ee\	.
12g\J	12gg\J	.
12A\L	12a\L	.
12d#\	12ff#\	.
12f#\J	12aa\J	.
12A\L	12a\L	.
12e\	12ee\	.
12g\J	12gg\J	.
12A\L	12a\L	.
12d#\	12ff#\	.
12f#\J	12aa\J)	.
=78	=78	=78
12A\ 12c#\ 12e\ 12g\	12a/ 12cc#/ 12ee/ 12gg/L	.
12r	12ee/	.
12r	12cc#/J	.
12r	12a/	.
12g\L	12r	.
12e\J	12r	.
12c#\L	2r	.
12A\J	.	.
12G/	.	.
12E/L	.	.
12C#/	.	.
12AA/J	.	.
=79	=79	=79
12AAA\L	1r	.
12CC#\	.	.
12EE\J	.	.
12AA\	.	.
12C#/L	.	.
12E/J	.	.
12G/L	.	.
12B/	.	.
12A/J	.	.
12G/L	.	.
12F#/	.	.
12E/J	.	.
=80	=80	=80
.	F#q/LL	.
.	Aq/JJ	.
8r	2d/	.
(16C#\LL	.	.
16D\JJ	.	.
4DD/)	.	.
.	F#q/LL	.
.	Aq/JJ	.
8r	2e/	.
(16GG#/LL	.	.
16AA/JJ	.	.
4AAA/)	.	.
=81	=81	=81
.	Aq/LL	.
.	(dq/JJ	.
8.r	2f#/)	.
16C#/	.	.
8D/L	.	.
16AA/L	.	.
16FF#/JJ	.	.
&(4DD/&)	4r	.
4r	(8.dd\L	p
.	16a\Jk	.
=82	=82	=82
*^	*	*
4r	4r	(2f#/)	.
2.d/	4d\	.	.
.	.	aq/	.
.	&(4B\&)	&(8.g/L&)	.
.	.	16f#/k	.
.	4G\	8.g/	.
.	.	16b/Jk	.
=83	=83	=83	=83
(4c#/	2.A\	8.e/L	.
.	.	16g/k	.
4d/	.	8.f#/	.
.	.	16a/Jk	.
4e/)	.	4g/)	.
4r	4r	4r	.
*v	*v	*	*
=84	=84	=84
.	(F#q/LL	.
.	Aq/JJ	.
16r	4d/)	f
(16D/LL	.	.
16AA/	.	.
16FF#/JJ	.	.
8DD/)	8r	.
.	(F#q/LL	.
.	Aq/JJ	.
8r	8d/	.
.	(Aq/LL)	.
.	c#q/JJ	.
16r	8e/)	.
(16AA/LL	.	.
16EE/	8r	.
16CC#/JJ	.	.
8AAA/)	8r	.
.	(Aq/LL	.
.	c#q/JJ	.
8r	8e/)	.
=85	=85	=85
.	(Aq/LL	.
.	dq/JJ	.
16r	8f#/)	.
16D/LL	.	.
16C#/	8r	.
16BB/JJ	.	.
16AA/LL	4r	.
16GG/	.	.
16FF#/	.	.
16EE/JJ	.	.
&(8DD/&)	16r	.
.	(16aa\LL	p
8r	16gg\	.
.	16ff#\JJ	.
4r	16ee\LL	.
.	16dd\	.
.	16cc#\	.
.	16b\JJ	.
=86	=86	=86
16D\LL	4.a/)	.
16F#\	.	.
16A\	.	.
16d\JJ	.	.
*clefG2	*	*
&(8f#/L&)	.	.
8d/J	8a#/	.
8g/L	(16b\LL	.
.	16cc#\	.
8d/	16dd\	.
.	16cc#\JJ	.
8g/	16ee/	.
.	16dd\LL	.
8d/J	16cc#\	.
.	16b\JJ	.
=87	=87	=87
&(4f#/&)	16a\LL	.
.	16b\	.
.	16cc#\	.
.	16dd\JJ	.
4r	16ee\LL	.
.	16ff#\	.
.	16gg\	.
.	16gg#\JJ	.
*clefF4	*	*
(16F#\LL	8aa\)	mf
16G\	.	.
16A\	8r	.
16B\JJ	.	.
16c#\LL	4r	.
16d\	.	.
16e\	.	.
16f#\JJ	.	.
=88	=88	=88
2g\)	16a#\LL	<
.	16b\	.
.	16cc#\	.
.	16dd\JJ	.
.	16ee\LL	.
.	16ff#\	.
.	16gg\	.
.	16aan\JJ	.
4r	&(8bb\L&)	.
.	8bb\	.
4G#\ 4B\ 4d\ 4fn\	8ccc#\	.
.	&(8ddd\J&)	.
=89	=89	=89
.	dddq/	.
12A\L	2dd\	f
12d\	.	.
12f#\J	.	.
12A\L	.	.
12d\	.	.
12f#\J	.	.
.	ff#q/	.
12A\L	(8.ee\L	>
12c#\	.	.
12gn\J	.	.
.	16dd\k	.
12A\L	8.ee\	.
12c#\	.	.
12g\J	.	.
.	16ff#\Jk	.
*clefG2	*	*
=90	=90	=90
12d/L	4dd\)	p
12f#/	.	.
12a/J	.	.
12d/L	4r	.
12f#/	.	.
12a/J	.	.
12c#/L	4ee'\ (4aa'\	.
12g/	.	.
12a/J	.	.
12c#/L	4ee'\ 4aa'\	.
12g/	.	.
12a/J	.	.
=91	=91	=91
12d/L	4ff#'\ 4aa'\)	.
12f#/	.	.
12a/J	.	.
12d/L	4r	.
12f#/	.	.
12a/J	.	.
*	*clefF4	*clefF4
12c#/L	4E'\ (4A'\	.
12g/	.	.
12a/J	.	.
12c#/L	4E'\ 4A'\	.
12g/	.	.
12a/J	.	.
=92	=92	=92
12d/L	4F#'\ 4A'\)	.
12f#/	.	.
12a/J	.	.
12d/L	4r	.
12f#/	.	.
12a/J	.	.
*	*clefG2	*clefG2
12c#/L	4ee'\ (4aa'\	.
12g/	.	.
12a/J	.	.
12c#/L	4ee'\ 4aa'\	.
12g/	.	.
12a/J	.	.
=93	=93	=93
4d/	12ff#'\L)	mf
.	(12aa\	.
.	12gg\J	.
4r	12ff#\L	.
.	12ee\	.
.	12dd\J	.
4r	12cc#\L	.
.	12b\	.
.	12a\J	.
*clefF4	*	*
4C#''\ 4E''\ 4G''\ 4A''\	12g/L	.
.	12f#/	.
.	12e/J	.
=94	=94	=94
4D''\ 4F#''\ 4A''\	12d''\L)	.
.	12ff#\	.
.	12ee\J	.
4r	12dd\L	.
.	12cc#\	.
.	12b\J	.
4r	12a/L	.
.	12b/	.
.	12a/J	.
4C#''\ 4E''\ 4G''\ 4A''\	12g/L	.
.	12f#/	.
.	12e/J	.
=95	=95	=95
4D''\ 4F#''\ 4A''\	12d\L	.
.	(12ff#\	f
.	12ee\J	.
4r	12dd''\L)	.
.	(12cc#\	.
.	12b\J	.
4r	12a''/L)	.
.	(12b/	.
.	12a/J	.
4C#''\ 4E''\ 4G''\ 4A''\	12g''/L)	.
.	(12f#/	.
.	12e/J	.
=96	=96	=96
4D''\ 4F#''\ 4A''\	12d''/L)	f
.	(12dd/	.
.	12cc#/J	.
4d\ 4f#\	12b/L)	.
.	12ff#/	.
.	(12g#/J	.
4c#\ &(4e\&)	12a/L	.
.	12b/	.
.	12a/J	.
4B\ 4d\	12gn/L	.
.	12dd/)	.
.	(12e#/J	.
=97	=97	=97
4A\ &(4c#\&)	12f#/L	.
.	12g/	.
.	12f#/J	.
4G\ 4B\	12en/L	.
.	12b/)	.
.	(12c#/J	.
4F#\ &(4A\&)	12d/L	.
.	12f#/	.
.	12e/J	.
4r	12d/L	.
.	12a/)	.
.	(12d#/J	.
=98	=98	=98
12GG/L	(2e/)	.
12BB/	.	.
12E/J	.	.
12GG/L	.	.
12BB/	.	.
12E/J	.	.
12GG#/L	2b/	.
12D/	.	.
12Fn/J	.	.
12GG#/L	.	.
12D/	.	.
12F/J	.	.
=99	=99	=99
12AA/L	(2d/)	.
12D/	.	.
12F#/J	.	.
12AA/L	.	.
12D/	.	.
12F#/J	.	.
.	f#q/	.
12AA/L	&(8.e/L&)	.
12C#/	.	.
12Gn/J	.	.
.	16d/k	.
12AA/L	8.e/	.
12C#/	.	.
12G/J	.	.
.	16f#/Jk	.
=100	=100	=100
4D\ 4F#\	12d''/L)	.
.	12b''/ 12dd''/	mf
.	12a''/ 12cc#''/J	.
12r	12g''/ 12b''/L	.
12r	12f#''/ 12a''/	.
12CC#''/ 12C#''/	12e''/ 12g''/J	.
4DD/ 4D/	12c#''/ 12f#''/L	.
.	12b''/ 12dd''/	<
.	12a''/ 12cc#''/J	.
12r	12g''/ 12b''/L	.
12r	12f#''/ 12a''/	.
12CC#''/ 12C#''/	12e''/ 12g''/J	.
=101	=101	=101
4DD/ 4D/	12d''\ 12f#''\L	f
.	12bb''\ 12ddd''\	.
.	12aa''\ 12ccc#''\J	.
12r	12gg''\ 12bb''\L	.
12r	12ff#''\ 12aa''\	.
12C#''\ 12c#''\	12ee''\ 12gg''\J	.
4D\ 4d\	12dd''\ 12ff#''\L	.
.	12bb''\ 12ddd''\	.
.	12aa''\ 12ccc#''\J	.
12r	12gg''\ 12bb''\L	.
12r	12ff#''\ 12aa''\	.
12C#''\ 12c#''\	12ee''\ 12gg''\J	.
=102	=102	=102
4D\ 4d\	12dd''\ 12ff#''\L	.
.	12ff#\ (12aa\	.
.	12ee\ 12gg\J	.
4r	12dd''\ 12ff#''\L)	.
.	12dd\ (12ff#\	.
.	12cc#\ 12ee\J	.
2r	12b''\ 12dd''\L)	.
.	12b\ (12dd\	.
.	12a\ 12cc#\J	.
.	12g''/ 12b''/L)	.
.	(12g/ 12b/	.
.	12f#/ 12a/J	.
=103	=103	=103
12C#\L	(2e/) 2g/	.
12E\	.	.
12A\J	.	.
12C#\L	.	.
12E\	.	.
12A\J	.	.
12D\L	4f#/	.
12F#\	.	.
12A\J	.	.
12D\L	4d/)	.
12F#\	.	.
12A\J	.	.
=104	=104	=104
12GG/L	(4.b\	<
12D/	.	.
12G/J	.	.
12GG/L	.	.
12D/	.	.
.	cc#q/LL	.
.	bq/	.
.	aq/JJ	.
.	&(8b\&)	.
12G/J	.	.
12GG#/L	2dd\	.
12D/	.	.
12Fn/J	.	.
12GG#/L	.	.
12D/	.	.
12F/J	.	.
=105	=105	=105
12AA/L	(2d/)	>
12D/	.	.
12F#/J	.	.
12AA/L	.	.
12D/	.	.
12F#/J	.	.
.	f#q/	.
12AA/L	&(8.e/L&)	.
12C#/	.	.
12Gn/J	.	.
.	16d/k	.
12AA/L	8.e/	.
12C#/	.	.
12G/J	.	.
.	16f#/Jk	.
=106	=106	=106
12DD/L	4d/)	p
12AA/	.	.
12D/J	.	.
12DD/L	4r	.
12AA/	.	.
12D/J	.	.
12DD/L	4c#'/ (4g'/	.
12AA/	.	.
12E/J	.	.
12DD/L	4c#'/ 4g'/	.
12AA/	.	.
12E/J	.	.
=107	=107	=107
12DD/L	4d'/ 4f#'/)	.
12AA/	.	.
12D/J	.	.
12DD/L	4r	.
12AA/	.	.
12D/J	.	.
12DD/L	4g'/ (4cc#'/	.
12AA/	.	.
12E/J	.	.
12DD/L	4g'/ 4cc#'/	.
12AA/	.	.
12E/J	.	.
=108	=108	=108
12DD/L	4f#'/ 4dd'/)	.
12AA/	.	.
12D/J	.	.
12DD/L	4r	.
12AA/	.	.
12D/J	.	.
12DD/L	4c#'/ (4g'/	>
12BB-/	.	.
12E/J	.	.
12DD/L	4c#'/ 4g'/	.
12BB-/	.	.
12E/J	.	.
=109	=109	=109
12DD/L	4d'/ 4f#'/)	.
12AA/	.	.
12D/J	.	.
12DD/L	4r	.
12AA/	.	.
12D/J	.	.
12DD/L	4G'/ (4c#'/	.
12BB-/	.	.
12E/J	.	.
12DD/L	4G'/ 4c#'/	.
12BB-/	.	.
12E/J	.	.
=110	=110	=110
12DD/L	4F#'/ 4d'/)	pp
12AA/	.	.
12D/J	.	.
12DD/L	4r	.
12AA/	.	.
12D/J	.	.
12DD/L	4F#'/ (4d'/	.
12AA/	.	.
12D/J	.	.
12DD/L	4F#'/ 4d'/)	.
12AA/	.	.
12D/J	.	.
=111	=111	=111
1DD	1F# 1d	.
==	==	==
*-	*-	*-
!!!ENC: Craig Stuart Sapp
!!!END: 2008/07/05/
